Adwaita++-Dark/mimetypes/16/gdlink.svg

<svg height="16" viewBox="0 0 16 16" width="16" xmlns="http://www.w3.org/2000/svg">
  <path d="m3.174389 15.099031 2.564961-4.056622h10.26065l-2.565191 4.056622zm7.755041-14.198062h-5.070913l5.070913 9.127353h5.07057zm-5.882019.811319-5.047411 8.138532 2.363471 4.730996 4.915064-8.611125z" fill="#e6ddff" fill-rule="evenodd"/>
</svg>

<svg xmlns="http://www.w3.org/2000/svg" style="isolation:isolate" width="16" height="16" viewBox="0 0 16 16">
 <defs>
  <style id="current-color-scheme" type="text/css">
   .ColorScheme-Text { color:#E6DDFF; } .ColorScheme-Highlight { color:#5294e2; }
  </style>
  <linearGradient id="arrongin" x1="0%" x2="0%" y1="0%" y2="100%">
   <stop offset="0%" style="stop-color:#dd9b44"/>
   <stop offset="100%" style="stop-color:#ad6c16"/>
  </linearGradient>
  <linearGradient id="aurora" x1="0%" x2="0%" y1="0%" y2="100%">
   <stop offset="0%" style="stop-color:#09D4DF"/>
   <stop offset="100%" style="stop-color:#9269F4"/>
  </linearGradient>
  <linearGradient id="fitdance" x1="0%" x2="0%" y1="0%" y2="100%">
   <stop offset="0%" style="stop-color:#1AD6AB"/>
   <stop offset="100%" style="stop-color:#329DB6"/>
  </linearGradient>
  <linearGradient id="oomox" x1="0%" x2="0%" y1="0%" y2="100%">
   <stop offset="0%" style="stop-color:#efefe7"/>
   <stop offset="100%" style="stop-color:#8f8f8b"/>
  </linearGradient>
  <linearGradient id="rainblue" x1="0%" x2="0%" y1="0%" y2="100%">
   <stop offset="0%" style="stop-color:#00F260"/>
   <stop offset="100%" style="stop-color:#0575E6"/>
  </linearGradient>
  <linearGradient id="sunrise" x1="0%" x2="0%" y1="0%" y2="100%">
   <stop offset="0%" style="stop-color:#FF8501"/>
   <stop offset="100%" style="stop-color:#FFCB01"/>
  </linearGradient>
  <linearGradient id="telinkrin" x1="0%" x2="0%" y1="0%" y2="100%">
   <stop offset="0%" style="stop-color:#b2ced6"/>
   <stop offset="100%" style="stop-color:#6da5b7"/>
  </linearGradient>
  <linearGradient id="60spsycho" x1="0%" x2="0%" y1="0%" y2="100%">
   <stop offset="0%" style="stop-color:#df5940"/>
   <stop offset="25%" style="stop-color:#d8d15f"/>
   <stop offset="50%" style="stop-color:#e9882a"/>
   <stop offset="100%" style="stop-color:#279362"/>
  </linearGradient>
  <linearGradient id="90ssummer" x1="0%" x2="0%" y1="0%" y2="100%">
   <stop offset="0%" style="stop-color:#f618c7"/>
   <stop offset="20%" style="stop-color:#94ffab"/>
   <stop offset="50%" style="stop-color:#fbfd54"/>
   <stop offset="100%" style="stop-color:#0f83ae"/>
  </linearGradient>
  <linearGradient id="cyberneon" x1="0%" x2="0%" y1="0%" y2="100%">
   <stop offset="0" style="stop-color:#0abdc6"/>
   <stop offset="1" style="stop-color:#ea00d9"/>
  </linearGradient>
 </defs>
 <path style="fill:currentColor" fill-rule="evenodd" class="ColorScheme-Text" d="M 3.174389 15.099031 L 5.73935 11.042409 L 16 11.042409 L 13.434809 15.099031 L 3.174389 15.099031 L 3.174389 15.099031 Z M 10.92943 0.900969 L 5.858517 0.900969 L 10.92943 10.028322 L 16 10.028322 L 10.92943 0.900969 L 10.92943 0.900969 Z M 5.047411 1.712288 L 0 9.85082 L 2.363471 14.581816 L 7.278535 5.970691 L 5.047411 1.712288 Z"/>
</svg>
